src/assets/cards/3S.svg

<svg clip-rule="evenodd" fill-rule="evenodd" stroke-linejoin="round" stroke-miterlimit="2" viewBox="0 0 934 1300" xmlns="http://www.w3.org/2000/svg"><g fill-rule="nonzero"><path d="m457.512 287.027c.083-8.442-6.584-8.604-6.542-2.442-.542 30.955-26.708 46.192-45.75 42.58-29.292-5.575-38.667-34.675-38.375-51.817.875-52.9 54.125-91.908 102.167-159.725 35.208 61.208 93.333 109.287 96.75 156.604 4.583 62.913-75.042 86.375-86.417 13.054-.708-5.179-6.833-7.504-6.333-.271 1.708 20.096-.75 28.467 21.916 78h-59.25c13.125-23.145 20.959-51.562 21.834-75.983z"/><path d="m457.845 601.802c.042 8.442-6.625 8.6-6.542 2.442-.583-30.954-26.75-46.196-45.75-42.579-29.333 5.575-38.666 34.675-38.416 51.812.875 52.904 54.125 91.913 102.166 159.729 35.209-61.212 93.334-109.291 96.75-156.608 4.584-62.908-75-86.375-86.375-13.054-.75 5.179-6.833 7.508-6.375.271 1.75-20.092-.708-28.463 21.959-77.996h-59.25c13.125 23.146 20.916 51.562 21.833 75.983z"/><path d="m457.553 1012.97c.084 8.45-6.583 8.6-6.541 2.45-.542-30.96-26.709-46.201-45.75-42.585-29.292 5.575-38.667 34.675-38.375 51.815.875 52.9 54.125 91.91 102.166 159.73 35.209-61.22 93.334-109.29 96.75-156.61 4.584-62.91-75.041-86.372-86.375-13.05-.75 5.18-6.833 7.5-6.375.27 1.709-20.096-.75-28.467 21.959-78h-59.292c13.125 23.145 20.958 51.562 21.833 75.98z"/><path d="m79.148 290.907c.041-3.634-3.709-1.938-4.209-.792-4.875 8.271-11.958 10.196-18.958 7.212-6.958-2.954-10.833-9.5-10.25-18.841 1.333-14.325 12.667-29.996 18.167-38.859 5.208-8.041 10.958-17.591 17-29.808 7.041 14.013 10.625 18.004 18.333 30.796 6.792 11.271 16.208 22.304 16.958 35.929 0 10.354-4.375 20.133-14.166 21.913-5.542 1.008-10.75-1.838-14.584-8.488-1.208-1.692-3.541-.808-3.5 1.508.667 8.725 3.959 16.6 11.792 25.884h-28.708c5.875-6.567 11.875-15.434 12.125-26.454z"/><path d="m36.19 163.785 10.613-7.665c9.232 14.727 19.531 24.424 35.274 22.756 23.646-1.594 33.43-25.917 28.488-44.257-4.779-16.445-24.361-24.461-39.916-15.68-3.663 2.07-7.903 4.629-7.903 4.629l-5.544-9.032 36.516-42.475h-39.627v17.575h-15.204v-31.511h77.461v10.687s-20.748 21.125-27.622 32.703c16.897.615 30.52 11.127 35.387 27.748 2.86 8.743 1.58 28.752-2.158 37.369-6.222 14.376-23.257 26.03-38.837 26.707-26.129 1.731-40.003-16.257-46.928-29.554z"/><path d="m895.91 1136.21-10.625 7.67c-9.22-14.72-19.518-24.42-35.261-22.76-23.646 1.6-33.431 25.92-28.488 44.27 4.779 16.44 24.36 24.45 39.915 15.67 3.663-2.07 7.903-4.23 7.903-4.23l6.561 8.47-37.533 42.64h39.628v-17.58h15.203v31.52h-77.46v-10.69s20.748-21.13 27.61-32.7c-16.885-.62-30.508-11.12-35.375-27.75-2.86-8.75-1.581-28.75 2.145-37.36 6.234-14.39 23.269-26.04 38.849-26.72 26.117-1.73 40.004 16.26 46.928 29.55z"/><path d="m849.41 1012.16c.042 3.63-3.75 1.93-4.25.79-4.833-8.28-11.958-10.2-18.958-7.22-6.959 2.96-10.834 9.51-10.209 18.84 1.292 14.33 12.625 30 18.125 38.87 5.209 8.04 10.959 17.59 17 29.8 7.084-14.01 10.667-18 18.334-30.8 6.791-11.26 16.25-22.3 16.958-35.92 0-10.35-4.333-20.13-14.167-21.91-5.541-1.01-10.75 1.83-14.583 8.48-1.167 1.7-3.542.81-3.5-1.51.667-8.72 3.958-16.594 11.792-25.878h-28.709c5.875 6.567 11.875 15.438 12.167 26.458z"/></g></svg>

<?xml version="1.0" encoding="UTF-8" standalone="no"?>
<!DOCTYPE svg PUBLIC "-//W3C//DTD SVG 1.1//EN" "http://www.w3.org/Graphics/SVG/1.1/DTD/svg11.dtd">
<svg width="100%" height="100%" viewBox="0 0 934 1300" version="1.1" xmlns="http://www.w3.org/2000/svg" xmlns:xlink="http://www.w3.org/1999/xlink" xml:space="preserve" xmlns:serif="http://www.serif.com/" style="fill-rule:evenodd;clip-rule:evenodd;stroke-linejoin:round;stroke-miterlimit:2;">
    <g>
        <g id="path3196">
            <path d="M457.512,287.027C457.595,278.585 450.928,278.423 450.97,284.585C450.428,315.54 424.262,330.777 405.22,327.165C375.928,321.59 366.553,292.49 366.845,275.348C367.72,222.448 420.97,183.44 469.012,115.623C504.22,176.831 562.345,224.91 565.762,272.227C570.345,335.14 490.72,358.602 479.345,285.281C478.637,280.102 472.512,277.777 473.012,285.01C474.72,305.106 472.262,313.477 494.928,363.01L435.678,363.01C448.803,339.865 456.637,311.448 457.512,287.027Z" style="fill-rule:nonzero;"/>
        </g>
        <g id="path3256">
            <path d="M457.845,601.802C457.887,610.244 451.22,610.402 451.303,604.244C450.72,573.29 424.553,558.048 405.553,561.665C376.22,567.24 366.887,596.34 367.137,613.477C368.012,666.381 421.262,705.39 469.303,773.206C504.512,711.994 562.637,663.915 566.053,616.598C570.637,553.69 491.053,530.223 479.678,603.544C478.928,608.723 472.845,611.052 473.303,603.815C475.053,583.723 472.595,575.352 495.262,525.819L436.012,525.819C449.137,548.965 456.928,577.381 457.845,601.802Z" style="fill-rule:nonzero;"/>
        </g>
        <g id="path3258">
            <path d="M457.553,1012.97C457.637,1021.42 450.97,1021.57 451.012,1015.42C450.47,984.46 424.303,969.219 405.262,972.835C375.97,978.41 366.595,1007.51 366.887,1024.65C367.762,1077.55 421.012,1116.56 469.053,1184.38C504.262,1123.16 562.387,1075.09 565.803,1027.77C570.387,964.86 490.762,941.398 479.428,1014.72C478.678,1019.9 472.595,1022.22 473.053,1014.99C474.762,994.894 472.303,986.523 495.012,936.99L435.72,936.99C448.845,960.135 456.678,988.552 457.553,1012.97Z" style="fill-rule:nonzero;"/>
        </g>
        <g id="path3312">
            <path d="M79.148,290.907C79.189,287.273 75.439,288.969 74.939,290.115C70.064,298.386 62.981,300.311 55.981,297.327C49.023,294.373 45.148,287.827 45.731,278.486C47.064,264.161 58.398,248.49 63.898,239.627C69.106,231.586 74.856,222.036 80.898,209.819C87.939,223.832 91.523,227.823 99.231,240.615C106.023,251.886 115.439,262.919 116.189,276.544C116.189,286.898 111.814,296.677 102.023,298.457C96.481,299.465 91.273,296.619 87.439,289.969C86.231,288.277 83.898,289.161 83.939,291.477C84.606,300.202 87.898,308.077 95.731,317.361L67.023,317.361C72.898,310.794 78.898,301.927 79.148,290.907Z" style="fill-rule:nonzero;"/>
        </g>
        <g id="path7102">
            <path d="M36.19,163.785L46.803,156.12C56.035,170.847 66.334,180.544 82.077,178.876C105.723,177.282 115.507,152.959 110.565,134.619C105.786,118.174 86.204,110.158 70.649,118.939C66.986,121.009 62.746,123.568 62.746,123.568L57.202,114.536L93.718,72.061L54.091,72.061L54.091,89.636L38.887,89.636L38.887,58.125L116.348,58.125L116.348,68.812C116.348,68.812 95.6,89.937 88.726,101.515C105.623,102.13 119.246,112.642 124.113,129.263C126.973,138.006 125.693,158.015 121.955,166.632C115.733,181.008 98.698,192.662 83.118,193.339C56.989,195.07 43.115,177.082 36.19,163.785Z" style="fill-rule:nonzero;"/>
        </g>
        <g id="path7118">
            <path d="M895.91,1136.21L885.285,1143.88C876.065,1129.16 865.767,1119.46 850.024,1121.12C826.378,1122.72 816.593,1147.04 821.536,1165.39C826.315,1181.83 845.896,1189.84 861.451,1181.06C865.114,1178.99 869.354,1176.83 869.354,1176.83L875.915,1185.3L838.382,1227.94L878.01,1227.94L878.01,1210.36L893.213,1210.36L893.213,1241.88L815.753,1241.88L815.753,1231.19C815.753,1231.19 836.501,1210.06 843.363,1198.49C826.478,1197.87 812.855,1187.37 807.988,1170.74C805.128,1161.99 806.407,1141.99 810.133,1133.38C816.367,1118.99 833.402,1107.34 848.982,1106.66C875.099,1104.93 888.986,1122.92 895.91,1136.21Z" style="fill-rule:nonzero;"/>
        </g>
        <g id="path3334">
            <path d="M849.41,1012.16C849.452,1015.79 845.66,1014.09 845.16,1012.95C840.327,1004.67 833.202,1002.75 826.202,1005.73C819.243,1008.69 815.368,1015.24 815.993,1024.57C817.285,1038.9 828.618,1054.57 834.118,1063.44C839.327,1071.48 845.077,1081.03 851.118,1093.24C858.202,1079.23 861.785,1075.24 869.452,1062.44C876.243,1051.18 885.702,1040.14 886.41,1026.52C886.41,1016.17 882.077,1006.39 872.243,1004.61C866.702,1003.6 861.493,1006.44 857.66,1013.09C856.493,1014.79 854.118,1013.9 854.16,1011.58C854.827,1002.86 858.118,994.986 865.952,985.702L837.243,985.702C843.118,992.269 849.118,1001.14 849.41,1012.16Z" style="fill-rule:nonzero;"/>
        </g>
    </g>
</svg>
